!!!OTL: NUN SO WOLLN WIR NOCH EINMAL
!!!ARE: Europa, Mitteleuropa, Deutschland
!!!SCT: E1726
!!!YEM: Copyright 1995, estate of Helmut Schaffrath.
**kern
*ICvox
*Ivox
*M3/4
*k[f#]
*G:
{8dd
8b
=1
8.g
16g
8g
8g
4g
=2
8.g
16g
8g
8g
4g
=3
4ee
4ee
4ee
=4
2dd
4r}
=5
{4cc
4cc
4cc
=6
4b
4b
4b
=7
4dd
4dd
4dd
=8
2g}
==
!!!AGN: Scherz - Lied, Soldaten - Lied
!!!ONB: ESAC (Essen Associative Code) Database: ERK3
!!!AMT: simple triple
!!!AIN: vox
!!!EED: Helmut Schaffrath
!!!EEV: 1.0
*-
